!!!OTL: Prelude No. 11 in F major
**kern	**kern
*Icemba	*Icemba
*staff2	*staff1
*clefF4	*clefG2
*k[b-]	*k[b-]
*F:	*F:
*M3/2	*M3/2
*MM120	*MM120
=1-	=1-
*^	*
2r	2FF\	8r
.	.	(8ee\L
.	.	8ff\
.	.	8gg\J)
2r	1F	(8ff\L
.	.	8ee\
.	.	8dd\
.	.	8cc\J)
2A/	.	(8dd\L
.	.	(8cc\)
.	.	8b-\
.	.	8a\J)
=2	=2	=2
*	*	*^
2d/	1.F	2b-/	8r
.	.	.	(8a\L
.	.	.	8g\
.	.	.	8f\J)
2B-/	.	2g/	8r
.	.	.	(8f\L
.	.	.	8e\
.	.	.	8d\J)
8G/L	.	2r	[2e\
8B-/	.	.	.
8c/	.	.	.
8d/J	.	.	.
=3	=3	=3	=3
8c/L	2r	2r	2e\]
8B-/	.	.	.
8A/	.	.	.
8G/J	.	.	.
2A/	8r	2a/	2c\ 2f\
.	(8G\L	.	.
.	8F\	.	.
.	8E\J)	.	.
2F/	(8F\L	2f/ [2a-/	2d\
.	8D\	.	.
.	8C\	.	.
.	&(8BBn\J&)	.	.
=4	=4	=4	=4
8F/L)	[1C	8a-/L]	4c\ 4f\
8F/	.	8a-/	.
8E/	.	8g/	4r
8D/J	.	8f/J	.
4E/	.	1g	8r
.	.	.	8f\L
4G/	.	.	8e\
.	.	.	&(8d\J&)
4c/	8C\L]	.	2e\
.	8D\	.	.
[4G/	8C\	.	.
.	8BB-\J	.	.
=5	=5	=5	=5
4G/]	2AA\	2r	8r
.	.	.	(8c\L
4G/	.	.	8d\
.	.	.	8e-\J)
4F#/	1D	8r	2d\
.	.	(8en/L	.
4B-/	.	8f#/	.
.	.	8g/J)	.
[2A/	.	8r	[2f#\
.	.	8a/L	.
.	.	8b-/	.
.	.	8cc/J	.
=6	=6	=6	=6
4A/]	2GG\	[2cc/	8f#/L]
.	.	.	8a/
2D/	.	.	8g/
.	.	.	8f#/J
.	2BB-\	8cc/L]	4.g\
.	.	8a/J	.
2G/	.	[4b-/	.
.	.	.	8g\
.	2GG\	2b-/_	8d\L
.	.	.	8fn\
[4G/	.	.	8e\
.	.	.	8d\J
=7	=7	=7	=7
8G/L]	2C\	1b-_	2e\
8B-/	.	.	.
8c/	.	.	.
8d-/J	.	.	.
[1c	2E\	.	8r
.	.	.	8dn\L
.	.	.	8e\
.	.	.	8f\J
.	2C\	8b-/L]	[2e\
.	.	8g/	.
.	.	8a/	.
.	.	[8b-/J	.
=8	=8	=8	=8
1c]	2F\	2b-/_	8e\L]
.	.	.	8g\
.	.	.	8f\
.	.	.	8e\J
.	2A\	8b-/L]	4.f\
.	.	8g/J	.
.	.	[4a/	.
.	.	.	8f\
8c/L	2F\	2a/_	[2f\
8e-/	.	.	.
8d/	.	.	.
8c/J	.	.	.
=9	=9	=9	=9
2d/	4B-\	8a/L]	2f\]
.	.	8cc/	.
.	4A\	8dd/	.
.	.	8ee-/J	.
4r	[1B-	8r	4dd\
.	.	8cc/L	.
2.d/	.	8b-/	[4g\
.	.	8a/J	.
.	.	2b-/	8g\L]
.	.	.	8a\
.	.	.	8g\
.	.	.	8f\J
*	*	*v	*v
=10	=10	=10
4c/	8B-\L]	1g [1cc 1een
.	(8B-\	.
4r	8c\	.
.	8d\J	.
2r	8c\L	.
.	8B-\	.
.	8A\	.
.	8G\J)	.
2r	(8A\L	2f\ 2cc\] [2ff\
.	8G\	.
.	8F\	.
.	8E\J)	.
=11	=11	=11
*	*	*^
4r	2.D\	8ff/L]	4r
.	.	(8ee/	.
[2.A/	.	8ff/	4A\
.	.	8gg/J	.
.	.	8ff/L	[1d
.	.	8ee/	.
.	4E\	8dd/	.
.	.	8cc/J)	.
2A/]	2F\	(8dd/L	.
.	.	8cc/	.
.	.	8bn/	.
.	.	8a/J)	.
*	*	*v	*v
=12	=12	=12
*	*	*^
*	*	*	*^
2G/	2F\	1bn	8r	2d\_
.	.	.	8a/L	.
.	.	.	8g/	.
.	.	.	8f/J	.
2r	2r	.	(2g/	8d\L]
.	.	.	.	8f\
.	.	.	.	8e\
.	.	.	.	8d\J
8r	2E\	2cc/)	[2g/	[2e\
8Bn/L	.	.	.	.
8c/	.	.	.	.
8d/J	.	.	.	.
*	*	*v	*v	*v
=13	=13	=13
*	*	*^
8c/L	[2E\	2.cc/	2e\] 2g\]
8Bn/	.	.	.
8A/	.	.	.
8G/J	.	.	.
[1A	(8E\L]	.	[2f\
.	8G\	.	.
.	8F\	4cc/	.
.	8E\J	.	.
.	8F\L	4dd/	2f\_
.	8E\	.	.
.	8D\	4ff/	.
.	8C\J)	.	.
=14	=14	=14	=14
2A/]	8D\L	4bn/	2f\_
.	8C\	.	.
.	8BBn\	4cc/	.
.	8AA\J	.	.
1G	4BB\	[2dd/	8f\L]
.	.	.	8f\
.	4GG\	.	8e\
.	.	.	8d\J
.	4C\	8dd/L]	[2e\
.	.	8g/	.
.	4BB\	8a/	.
.	.	8b/J	.
=15	=15	=15	=15
4A/	4AA\	[2cc/	8e\L]
.	.	.	(8e\
4r	4GG\	.	8f\
.	.	.	(8g\J)
2r	4FF\	2cc/]	8a\L
.	.	.	8g\
.	4DD\	.	8f\
.	.	.	8e\J)
4r	2GG\	8r	2d\
.	.	(8f/	.
[4G/	.	8cc/L	.
.	.	8bn/J	.
*	*	*v	*v
=16	=16	=16
*	*	*^
*	*	*	*^
2G/]	2C\	1.cc	8f/L)	2c\
.	.	.	8f/	.
.	.	.	8g/	.
.	.	.	8a/J	.
2r	2r	.	(1g	8r
.	.	.	.	8f\L
.	.	.	.	8e\
.	.	.	.	8d\J)
8r	2r	.	.	2e\
(8d/L	.	.	.	.
8c/	.	.	.	.
8Bn/J)	.	.	.	.
*	*	*	*v	*v
=17	=17	=17	=17
4c/	2r	8cc/L	2e\
.	.	8bn/	.
4G/	.	8cc/	.
.	.	8dd/J	.
4A/	(1C	8cc/L	2r
.	.	8b/	.
4E/	.	8a/	.
.	.	8g/J	.
4F/	.	8a/L	2r
.	.	8g/	.
4A/	.	8f/	.
.	.	8e/J	.
*	*	*v	*v
=18	=18	=18
*	*	*^
*	*	*	*^
4D/)	[1.C	[1.f	8r	2r
*	*	*	*v	*v
.	.	.	8e\L
4E/	.	.	8d\
.	.	.	8c\J
*	*	*	*^
[2F/	.	.	8r	1d
*	*	*	*v	*v
.	.	.	8c\L
.	.	.	8Bn\
.	.	.	8A\J
8F/L]	.	.	[2B\
8F/	.	.	.
8G/	.	.	.
8A/J	.	.	.
=19	=19	=19	=19
8G/L	2C\_	2d/ &(2f/]&)	2B\]
8F/	.	.	.
8E/	.	.	.
8D/J	.	.	.
2E/	8C\L]	2e/	2G\ 2c\
.	8D\	.	.
.	8C\	.	.
.	8BBn\J	.	.
2C/	(8C\L	[2e-/	2A\ [2c\
.	8AA\	.	.
.	8GG\	.	.
.	8FF#\J	.	.
=20	=20	=20	=20
8C/L)	[1GG	8e-/L]	4G\ 4c\]
8C/	.	8e-/	.
8BBn/	.	8d/	4r
8AA/J	.	8c/J	.
4BB/	.	1d	8r
.	.	.	8c\L
4D/	.	.	8Bn\
.	.	.	8A\J
4G/	8GG\L]	.	2B\
.	8AA\	.	.
[4D/	8GG\	.	.
.	8FF\J	.	.
*v	*v	*	*
=21	=21	=21
*^	*	*
*	*^	*	*
8r	2D/]	2EE\	2r	2r
*	*v	*v	*	*
8G/L	.	.	.
8A/	.	.	.
8B-/J	.	.	.
*	*^	*	*
[1A	4C#/	1AA	2r	8r
.	.	.	.	8Bn\L
*	*v	*v	*	*
.	4F/	.	8c#\
.	.	.	8d\J
.	[2E/	8r	[2c#\
.	.	8e/L	.
.	.	8f/	.
.	.	[8g/J	.
=22	=22	=22	=22
4E/]	2DD\ 2A\]	2g/_	8c#\L]
.	.	.	8e\
2AA/	.	.	8d\
.	.	.	8c#\J
.	2FF\	8g/L]	4.d\
.	.	8e/J	.
2D/	.	[4f/	.
.	.	.	8d\
.	2DD\	2f/]	8A\L
.	.	.	8cn\
[4D/	.	.	8Bn\
.	.	.	8A\J
=23	=23	=23	=23
8D/L]	2GG\	[1f	2Bn\
8F/	.	.	.
8G/	.	.	.
8A-/J	.	.	.
[1G	2BBn\	.	8r
.	.	.	8An\L
.	.	.	8B\
.	.	.	8c\J
.	2GG\	8f/L]	[2B\
.	.	8d/	.
.	.	8e/	.
.	.	[8f/J	.
=24	=24	=24	=24
1G]	2C\	2f/_	8B\L]
.	.	.	8d\
.	.	.	8c\
.	.	.	8Bn\J
.	2E\	8f/L]	4.c\
.	.	8d/J	.
.	.	[4e/	.
.	.	.	[8c\
8G/L	2C\	2e/_	2c\]
8B-/	.	.	.
8A/	.	.	.
8G/J	.	.	.
*	*	*v	*v
=25	=25	=25
*	*	*^
*	*	*	*^
2A/	4F\	2r	8e/L]	2c\
.	.	.	8g/	.
.	4E\	.	8a/	.
.	.	.	8b-/J	.
4r	(1F	1a	8r	4r
.	.	.	8g/L	.
2.A/	.	.	8f/	[4d\
.	.	.	8e/J	.
.	.	.	2f/	8d\L]
.	.	.	.	8e\
.	.	.	.	8d\
.	.	.	.	8c\J
*	*	*	*v	*v
=26	=26	=26	=26
4G/)	8F\L	1g 1bn	1d
.	8F\	.	.
4r	8G\	.	.
.	8A\J	.	.
2r	8G\L	.	.
.	8F\	.	.
.	8E\	.	.
.	8D\J	.	.
2r	8E\L	[2cc/	[2c\ 2g\
.	8D\	.	.
.	8C\	.	.
.	8BB-\J	.	.
*v	*v	*	*
=27	=27	=27
8AA\L	8cc/L]	4c\] 4f\
8E\	8cc/	.
8F\	8dd/	4r
8G\J	8ee-/J	.
8F\L	[2dd/	8r
8E-\	.	8cc\L
8D\	.	8b-\
8C\J	.	8a\J
8D\L	2b-/ 2dd/]	8r
8C\	.	8a\L
8BB-\	.	8g\
8AA\J	.	8f\J
=28	=28	=28
8GG\L	1b- 1een	1g
8B-\	.	.
8c\	.	.
8d\J	.	.
8c\L	.	.
8B-\	.	.
8A\	.	.
8G\J	.	.
8A\L	[2ff/	4f\ 4cc\
8G\	.	.
8F\	.	4r
8E\J	.	.
=29	=29	=29
8D\L	8ff/L]	2r
8A\	8ff/	.
8B-\	8gg/	.
8c\J	8aa/J	.
8B-\L	8gg/L	2r
8A\	8ff/	.
8G\	8ee/	.
8F\J	8dd/J	.
[2G\	8ee/L	8r
.	8dd/	8f\L
.	8cc#/	8e\
.	8bn/J	8d\J
=30	=30	=30
*^	*	*
1G]	2r	8r	2e\ 2cc#\
.	.	8b-/L	.
.	.	8a/	.
.	.	8g/J	.
.	2r	[2a/	8r
.	.	.	8g\L
.	.	.	8f\
.	.	.	8e\J
8r	[2F\	2a/_ [2dd/	[2f\
8c#/L	.	.	.
8d/	.	.	.
8e/J	.	.	.
=31	=31	=31	=31
8d/L	2F\]	4a/] 4dd/]	4f\]
8cn/	.	.	.
8B-/	.	4ff/	4a\
8A/J	.	.	.
2B-/	8r	4ee/	4g\
.	8A\L	.	.
.	8G\	4gg/	4b-\
.	8F\J	.	.
2A/	8G\L	4cc#/	4e\
.	8F\	.	.
.	8E\	[4dd/	[4f\
.	8D\J	.	.
=32	=32	=32	=32
[2A/	4A\	8dd/L]	8f\L]
.	.	8dd/	8f\
.	[4AA\	8cc#/	8e\
.	.	8bn/J	8d\J
8A/L]	4AA\]	1a 1cc#	1e
8G/	.	.	.
8A/	4r	.	.
8B-/J	.	.	.
2r	8A\L	.	.
.	8G\	.	.
.	8F\	.	.
.	8E\J	.	.
*	*	*v	*v
=33	=33	=33
2r	1.F	8r
.	.	8cc#\L
.	.	8dd\
.	.	8ee\J
2A/	.	8dd\L
.	.	8ccn\
.	.	8b-\
.	.	8a\J
[2d/	.	8b-/L
.	.	8a/
.	.	8g/
.	.	8f/J
=34	=34	=34
*	*	*^
4d/]	1E	1.g	8r
.	.	.	(8f\L
4r	.	.	8e\
.	.	.	8d\J
8r	.	.	[1e
8d/L	.	.	.
8c#/	.	.	.
8Bn/J	.	.	.
2c#/	8r	.	.
.	8G\L	.	.
.	8A\	.	.
.	8B-\J	.	.
=35	=35	=35	=35
&(2c#/&)	8A\L	2g/)	2e\]
.	8G\	.	.
.	8F\	.	.
.	8E\J	.	.
[1A	8F\L	[1f	[1d
.	8E\	.	.
.	8D\	.	.
.	8C#\J	.	.
.	8D\L	.	.
.	8Cn\	.	.
.	8BBn\	.	.
.	8AA\J	.	.
*	*	*v	*v
=36	=36	=36
8A/L]	[2BBn\	1.d_ 1.f_
8c/	.	.
8Bn/	.	.
8A/J	.	.
4G#/	8BB\L]	.
.	8C\	.
4A/	8D\	.
.	8E\J	.
[2B/	8D\L	.
.	8C\	.
.	8BB\	.
.	8AA\J	.
=37	=37	=37
*	*	*^
8B/L]	1.GG#	2f/]	2d\]
8D/	.	.	.
8E/	.	.	.
8F/J	.	.	.
[1E	.	2r	8r
.	.	.	8A\L
.	.	.	8Bn\
.	.	.	8c\J
.	.	8r	2B\
.	.	8c#/L	.
.	.	8d/	.
.	.	8e/J	.
=38	=38	=38	=38
2E/_	[1GGn	8c#/L	[2A\
.	.	8e/	.
.	.	8f/	.
.	.	8g/J	.
8E/L]	.	[1a	8A\L]
8F/	.	.	8Bn\
8E/	.	.	8c#\
8D/J	.	.	8d\J
[2C#/	8GG\L]	.	[2e\
.	8BB-\	.	.
.	8AA\	.	.
.	8GG\J	.	.
=39	=39	=39	=39
4C#/]	2FF\	8a/L]	4e\]
.	.	8g/	.
4D/	.	8b-/	[4d\
.	.	8a/J	.
4E/	2GG\	8g/L	4.d\]
.	.	8f/J	.
4F/	.	[4e/	.
.	.	.	8d\
4G/	2AA\	8e/L]	2c#\
.	.	8e/	.
4A/	.	8f/	.
.	.	[8g/J	.
=40	=40	=40	=40
4B-/	[1.D	8g/L]	[2d\
.	.	8g/	.
8A/L	.	8f/	.
8G/J	.	8e/J	.
[2A/	.	[1f	8d\L]
.	.	.	8e\
.	.	.	8d\
.	.	.	8c#\J
8A/L]	.	.	[2d\
8cn/	.	.	.
8B-/	.	.	.
8A/J	.	.	.
=41	=41	=41	=41
[2B-/	8D\L]	8f/L]	2d\_
.	8D\	8f/	.
.	8E\	8g/	.
.	8F\J	8a/J	.
4B-/]	4G\	[1b-	8d\L]
.	.	.	8d\
4A/	(4F\	.	8e\
.	.	.	8f\J
[2G/)	8F\L	.	4g\
.	8E\	.	.
.	8D\	.	4e\
.	8C\J	.	.
=42	=42	=42	=42
4G/]	4F\	8b-/L]	[2c\
.	.	8b-/	.
8F/L	4FF\	8a/	.
8E/J	.	8g/J	.
4F/	[1F	[1a	8c\L]
.	.	.	8g\
[4A/	.	.	8f\
.	.	.	8e\J
8A/L]	.	.	[2f\
8e/	.	.	.
8d/	.	.	.
8c#/J	.	.	.
=43	=43	=43	=43
[2d/	8F\L]	8a/L]	2f\_
.	8F\	8a/	.
.	8G\	8b-/	.
.	8A\J	8cc/J	.
4d/]	4B-\	[1dd	8f\L]
.	.	.	8f\
4c/	[4A\	.	8g\
.	.	.	8a\J
[2B-/	8A\L]	.	4b-\
.	8G\	.	.
.	8F\	.	4g\
.	8E\J	.	.
=44	=44	=44	=44
4B-/]	4A\	8dd/L]	[2e\
.	.	8dd/	.
8A/L	4AA\	8cc/	.
8G/J	.	8b-/J	.
4A/	[1A	[1cc	8e\L]
.	.	.	8b-\
[4c/	.	.	8a\
.	.	.	8g\J
8c/L]	.	.	[2a\
8g/	.	.	.
8f/	.	.	.
8e/J	.	.	.
=45	=45	=45	=45
[2f/	8A\L]	8cc/L]	2a\_
.	8A\	8cc/	.
.	8Bn\	8dd/	.
.	8c\J	8ee/J	.
4f/]	4d\	[1ff	8a\L]
.	.	.	8a\
4e/	(4c\	.	8bn\
.	.	.	8cc\J
[2d/)	8c\L	.	4dd\
.	8B\	.	.
.	8A\	.	4b\
.	8G\J	.	.
=46	=46	=46	=46
4d/]	4c\	8ff/L]	[2g\
.	.	8ff/	.
8c/L	4C\	8ee/	.
8Bn/J	.	8dd/J	.
2c/	1c	[1ee	8g\L]
.	.	.	8dd\
.	.	.	8cc\
.	.	.	8bn\J
8r	.	.	[2cc/
8bn/L	.	.	.
8a/	.	.	.
8g#/J	.	.	.
*v	*v	*	*
=47	=47	=47
8r	2cc/] 2ee/]	2a\
8e\L	.	.
8f\	.	.
8g\J	.	.
8f\L	[1bn [1dd	1a
8e\	.	.
8d\	.	.
8c\J	.	.
8d\L	.	.
8c\	.	.
8Bn\	.	.
8A\J	.	.
*	*v	*v
=48	=48
*^	*
2r	8Bn\L	[1.g# 1.b] 1.dd_
.	8A\	.
.	8G#\	.
.	8F#\J	.
[1e	8G#\L	.
.	8D\	.
.	8E\	.
.	8Fn\J	.
.	8E\L	.
.	8D\	.
.	8C\	.
.	8BBn\J	.
=49	=49	=49
*	*	*^
4e/]	(1.C	8dd/L]	8g#\] 8b-\
.	.	8dd/	8r
&(4E/&))	.	8ee/	4r
.	.	8ff/J	.
4F#/	.	8ee/L	2r
.	.	8dd/	.
4G#/	.	8cc/	.
.	.	8bn/J	.
4A/	.	8cc/L	2r
.	.	8b/	.
4Bn/	.	8a/	.
.	.	8g#/J	.
=50	=50	=50	=50
4c/	4C\	[1.a	8r
.	.	.	8gn\L
2A/	4C#\	.	8f\
.	.	.	8e\J
.	4D\	.	8f\L
.	.	.	8e\
4c#/	4E\	.	8f\
.	.	.	8g\J
4d/	4F\	.	8f\L
.	.	.	8e\
[4A/	4G\	.	8d\
.	.	.	8c#\J
=51	=51	=51	=51
4A/]	[1.F	8a/L]	8d\
.	.	8gg/	8r
4A/	.	8aa/	4r
.	.	8bb-/J	.
4Bn/	.	8aa/L	2r
.	.	8gg/	.
4c#/	.	8ff/	.
.	.	8ee/J	.
4d/	.	8ff/L	2r
.	.	8ee/	.
4e/	.	8dd/	.
.	.	8cc#/J	.
*	*	*v	*v
=52	=52	=52
8f/	8F\L]	8dd\L
8r	8G\	8ee\
4r	8A\	8ff\
.	8B-\J	8gg\J
2r	8A\L	8ff\L
.	8G\	8ee\
.	8F\	8dd\
.	8E\J	8cc#\J
2r	8F\L	8dd\L
.	8E\	8ccn\
.	8D\	8b-\
.	8C#\J	8a\J
=53	=53	=53
4r	[1.D	8b-\L
.	.	8cc\
4F/	.	8dd\
.	.	8ee-\J
4B-/	.	8dd\L
.	.	8cc\
4c/	.	8b-\
.	.	8a\J
4d/	.	8b-/L
.	.	8a/
4c/	.	8g#/
.	.	8f#/J
=54	=54	=54
4Bn/	8D\L]	4g#/
.	8D\	.
4r	8E\	4e/
.	8F\J	.
8E/L	2r	4g#/
8D/	.	.
8C/	.	4bn/
8BBn/J	.	.
8C/L	2r	2dd/
8BB/	.	.
8AA/	.	.
8GG#/J	.	.
=55	=55	=55
*	*	*^
2r	8AA\L	4dd/	4r
.	8FF\	.	.
.	8EE\	[4cc/	4f#\ 4a\
.	8DD#\J	.	.
8r	1EE	8cc/L]	[2e\ [2a\
8AA/L	.	8cc/	.
8BBn/	.	8bn/	.
8C/J	.	8a/J	.
4Dn/	.	2b/	8e\] 8a\L]
.	.	.	8f#\J
4E/	.	.	8g#\L
.	.	.	8d\J
=56	=56	=56	=56
4F/	[1AA	1.a	8d\L
.	.	.	8d\
4D/	.	.	8e\
.	.	.	8f\J
4F/	.	.	8e\L
.	.	.	8d\
4G#/	.	.	8c#\
.	.	.	8Bn\J
2E/ 2A/	8AA\L]	.	2c#\
.	8BB-\	.	.
.	8AA\	.	.
.	8GGn\J	.	.
*	*	*v	*v
=57	=57	=57
2r	2FF\	8r
.	.	8ee\L
.	.	8ff\
.	.	8gg\J
2r	[1F	8ff\L
.	.	8ee\
.	.	8dd\
.	.	8cc\J
2A/	.	8dd\L
.	.	8cc\
.	.	8b-\
.	.	8a\J
=58	=58	=58
*	*	*^
*	*	*	*^
2d/	(1.F]	2r	1.b-	8r
.	.	.	.	8a\L
.	.	.	.	8g\
.	.	.	.	8f\J
2B-/	.	1g	.	8r
.	.	.	.	8f\L
.	.	.	.	8e\
.	.	.	.	8d\J
8G/L	.	.	.	2e\
8B-/	.	.	.	.
8c/	.	.	.	.
8d/J)	.	.	.	.
*	*	*	*v	*v
=59	=59	=59	=59
8c/L	[2F\	2b-/	2e\ 2g\
8B-/	.	.	.
8A/	.	.	.
8G/J	.	.	.
2A/	8F\L]	2f/ 2a/	2c\
.	8G\	.	.
.	8F\	.	.
.	8E\J	.	.
2F/	(8F\L	[2a-/	2d\ [2f\
.	8D\	.	.
.	8C\	.	.
.	8BBn\J	.	.
=60	=60	=60	=60
8F/L)	[1C	8a-/L]	4c\ 4f\]
8F/	.	8a-/	.
8E/	.	8g/	4r
8D/J	.	8f/J	.
4E/	.	1g	8r
.	.	.	8f\L
4G/	.	.	8e\
.	.	.	8d\J
4c/	8C\L]	.	2e\
.	8D\	.	.
[4G/	8C\	.	.
.	8BB-\J	.	.
=61	=61	=61	=61
4G/]	2AA\	8r	2r
.	.	8c/L	.
4G/	.	8d/	.
.	.	8e-/J	.
4F#/	1D	8r	2d\
.	.	8en/L	.
4B-/	.	8f#/	.
.	.	8g/J	.
[2A/	.	8r	[2f#\
.	.	8a/L	.
.	.	8b-/	.
.	.	8cc/J	.
=62	=62	=62	=62
4A/]	2GG\	[2cc/	8f#/L]
.	.	.	8a/
2D/	.	.	8g/
.	.	.	8f#/J
.	2BB-\	8cc/L]	4.g\
.	.	8a/J	.
[4G/	.	[4b-/	.
.	.	.	8g\
8G/L]	2D\	(2b-/_	[2d\ 2g\
8F#/	.	.	.
8G/	.	.	.
8A/J	.	.	.
=63	=63	=63	=63
4B-/	2G\	8b-/L]	8d\] 8g\)
.	.	8g/	4.r
4r	.	8a/	.
.	.	8b-/J	.
4r	2A\	8r	2cc\
.	.	8dd/	.
8r	.	[4ee-/	.
8b-/	.	.	.
2a/	8F\L	[2cc/ 2ee-/_	2r
.	8g\	.	.
.	8f\	.	.
.	8e-\J	.	.
*v	*v	*	*
=64	=64	=64
8d\L	2cc/] 2ee-/]	2r
8c\	.	.
8B-\	.	.
8A\J	.	.
8B-\L	4b-/ 4dd/	[1f
8D\	.	.
8E-\	4a/ 4cc/	.
8F\J	.	.
8E-/L	4b-/ [4dd/	.
8D/	.	.
8C/	4a-/ 4dd/_	.
8BB-/J	.	.
*	*v	*v
=65	=65
*	*^
*	*	*^
4E-\	2dd/]	8a-/L	8f\]
.	.	8f/	8r
4D\	.	8g/	4r
.	.	8a-/J	.
(1E-	[2cc/	1g	8r
.	.	.	8f\L
.	.	.	8e-\
.	.	.	8d\J
.	4cc/]	.	8e-\L
.	.	.	8d\
.	8dd/L	.	8c\
.	8ee-/J	.	8B-\J
*	*	*v	*v
=66	=66	=66
8E-\L)	[1f 1a	1c
8E-\	.	.
8F\	.	.
8G\J	.	.
8F\L	.	.
8E-\	.	.
8D\	.	.
8C\J	.	.
8D/L	[2b-/	4B-\ 4f\]
8C/	.	.
8BB-/	.	4r
8AA/J	.	.
*	*v	*v
=67	=67
*^	*
4r	2.GG\	8b-/L]
.	.	8a/
4D/	.	8b-/
.	.	8cc/J
[1G	.	8b-/L
.	.	8a/
.	4AA\	8g/
.	.	8f/J
.	[2BB-\	8g/L
.	.	8f/
.	.	8e/
.	.	8d/J
=68	=68	=68
*	*	*^
2G/_	2BB-\]	1e	8r
.	.	.	8d\L
.	.	.	8c\
.	.	.	8B-\J
8G/L]	2r	.	2c/
8B-/	.	.	.
8A/	.	.	.
8G/J	.	.	.
8r	[2AA\ 2A\	2r	[2f/
8E/L	.	.	.
8F/	.	.	.
8G/J	.	.	.
=69	=69	=69	=69
8F/L	2AA\_ 2A\	2f/_	2r
8E/	.	.	.
8D/	.	.	.
8C/J	.	.	.
[1D	8AA\L]	4f/]	[1B-
.	8C\	.	.
.	8BB-\	4f/	.
.	8AA\J	.	.
.	8BB-\L	4g/	.
.	8AA\	.	.
.	8GG\	8a/L	.
.	8FF\J	8b-/J	.
=70	=70	=70	=70
2D/]	8GG\L	4e/	2B-\_
.	8FF\	.	.
.	8EE\	4f/	.
.	8DD\J	.	.
[1C	4EE\	[2g/	8B-\L]
.	.	.	8B-\
.	4CC\	.	8A\
.	.	.	8G\J
.	4FF\	8g/L]	[2A\
.	.	8c/	.
.	4EE\	8d/	.
.	.	8e/J	.
=71	=71	=71	=71
4C/]	2DD\	[1f	8A\L]
.	.	.	8A\
4C/	.	.	8B-\
.	.	.	8c\J
2BB-/	4r	.	8d\L
.	.	.	8c\
.	4GG\	.	8B-\
.	.	.	8A\J
2C/ 2G/	4C\	4f/]	8r
.	.	.	[4.B-\
.	4CC\	8f/L	.
.	.	8e/J	.
=72	=72	=72	=72
[2F/	1.FF'; 1.C';	1.f;	8B-\L]
.	.	.	8B-\
.	.	.	8A\
.	.	.	8G\J
8F/L]	.	.	1A;
8G/	.	.	.
8F/	.	.	.
8E/J	.	.	.
2F;/	.	.	.
*v	*v	*	*
*	*v	*v
==	==
*-	*-
!!!ENC: Craig Stuart Sapp
!!!END: 2008/01/29
!!!ONB: Lots of adjustments of the voicing to fit into Humdrum better
